6_2d_static_convex_hull/images/andrew_init.svg

<svg version="1.1" xmlns="http://www.w3.org/2000/svg" xmlns:xlink="http://www.w3.org/1999/xlink" width="966" height="562"><defs><clipPath id="fnzcxhcNgVuT"><path fill="none" stroke="none" d=" M 0 0 L 966 0 L 966 562 L 0 562 L 0 0 Z"/></clipPath></defs><g transform="scale(1,1)" clip-path="url(#fnzcxhcNgVuT)"><g><rect fill="rgb(255,255,255)" stroke="none" x="0" y="0" width="966" height="562" fill-opacity="1"/><path fill="rgb(77,77,255)" stroke="none" paint-order="stroke fill markers" d=" M 445.63316231778225 323.3450049488739 C 445.63316231778225 326.10642869802786 443.3945860669362 328.3450049488739 440.63316231778225 328.3450049488739 C 437.8717385686283 328.3450049488739 435.63316231778225 326.10642869802786 435.63316231778225 323.3450049488739 C 435.63316231778225 320.58358119971996 437.8717385686283 318.3450049488739 440.63316231778225 318.3450049488739 C 443.3945860669362 318.3450049488739 445.63316231778225 320.58358119971996 445.63316231778225 323.3450049488739 Z" fill-opacity="1"/><path fill="none" stroke="rgb(0,0,0)" paint-order="fill stroke markers" d=" M 445.63316231778225 323.3450049488739 C 445.63316231778225 326.10642869802786 443.3945860669362 328.3450049488739 440.63316231778225 328.3450049488739 C 437.8717385686283 328.3450049488739 435.63316231778225 326.10642869802786 435.63316231778225 323.3450049488739 C 435.63316231778225 320.58358119971996 437.8717385686283 318.3450049488739 440.63316231778225 318.3450049488739 C 443.3945860669362 318.3450049488739 445.63316231778225 320.58358119971996 445.63316231778225 323.3450049488739 Z" stroke-opacity="1" stroke-linecap="round" stroke-linejoin="round" stroke-miterlimit="10"/><path fill="rgb(77,77,255)" stroke="none" paint-order="stroke fill markers" d=" M 528.5699157928909 251.46648527044601 C 528.5699157928909 254.2279090196 526.3313395420449 256.466485270446 523.5699157928909 256.466485270446 C 520.8084920437369 256.466485270446 518.5699157928909 254.2279090196 518.5699157928909 251.46648527044601 C 518.5699157928909 248.70506152129204 520.8084920437369 246.46648527044601 523.5699157928909 246.46648527044601 C 526.3313395420449 246.46648527044601 528.5699157928909 248.70506152129204 528.5699157928909 251.46648527044601 Z" fill-opacity="1"/><path fill="none" stroke="rgb(0,0,0)" paint-order="fill stroke markers" d=" M 528.5699157928909 251.46648527044601 C 528.5699157928909 254.2279090196 526.3313395420449 256.466485270446 523.5699157928909 256.466485270446 C 520.8084920437369 256.466485270446 518.5699157928909 254.2279090196 518.5699157928909 251.46648527044601 C 518.5699157928909 248.70506152129204 520.8084920437369 246.46648527044601 523.5699157928909 246.46648527044601 C 526.3313395420449 246.46648527044601 528.5699157928909 248.70506152129204 528.5699157928909 251.46648527044601 Z" stroke-opacity="1" stroke-linecap="round" stroke-linejoin="round" stroke-miterlimit="10"/><path fill="rgb(77,77,255)" stroke="none" paint-order="stroke fill markers" d=" M 697.2079811922787 214.60570594817534 C 697.2079811922787 217.36712969732932 694.9694049414327 219.60570594817534 692.2079811922787 219.60570594817534 C 689.4465574431247 219.60570594817534 687.2079811922787 217.36712969732932 687.2079811922787 214.60570594817534 C 687.2079811922787 211.84428219902136 689.4465574431247 209.60570594817534 692.2079811922787 209.60570594817534 C 694.9694049414327 209.60570594817534 697.2079811922787 211.84428219902136 697.2079811922787 214.60570594817534 Z" fill-opacity="1"/><path fill="none" stroke="rgb(0,0,0)" paint-order="fill stroke markers" d=" M 697.2079811922787 214.60570594817534 C 697.2079811922787 217.36712969732932 694.9694049414327 219.60570594817534 692.2079811922787 219.60570594817534 C 689.4465574431247 219.60570594817534 687.2079811922787 217.36712969732932 687.2079811922787 214.60570594817534 C 687.2079811922787 211.84428219902136 689.4465574431247 209.60570594817534 692.2079811922787 209.60570594817534 C 694.9694049414327 209.60570594817534 697.2079811922787 211.84428219902136 697.2079811922787 214.60570594817534 Z" stroke-opacity="1" stroke-linecap="round" stroke-linejoin="round" stroke-miterlimit="10"/><path fill="rgb(77,77,255)" stroke="none" paint-order="stroke fill markers" d=" M 882.4333972866882 299.385498389398 C 882.4333972866882 302.14692213855193 880.1948210358422 304.385498389398 877.4333972866882 304.385498389398 C 874.6719735375342 304.385498389398 872.4333972866882 302.14692213855193 872.4333972866882 299.385498389398 C 872.4333972866882 296.62407464024403 874.6719735375342 294.385498389398 877.4333972866882 294.385498389398 C 880.1948210358422 294.385498389398 882.4333972866882 296.62407464024403 882.4333972866882 299.385498389398 Z" fill-opacity="1"/><path fill="none" stroke="rgb(0,0,0)" paint-order="fill stroke markers" d=" M 882.4333972866882 299.385498389398 C 882.4333972866882 302.14692213855193 880.1948210358422 304.385498389398 877.4333972866882 304.385498389398 C 874.6719735375342 304.385498389398 872.4333972866882 302.14692213855193 872.4333972866882 299.385498389398 C 872.4333972866882 296.62407464024403 874.6719735375342 294.385498389398 877.4333972866882 294.385498389398 C 880.1948210358422 294.385498389398 882.4333972866882 296.62407464024403 882.4333972866882 299.385498389398 Z" stroke-opacity="1" stroke-linecap="round" stroke-linejoin="round" stroke-miterlimit="10"/><path fill="rgb(77,77,255)" stroke="none" paint-order="stroke fill markers" d=" M 817.9270334727147 429.3197455004022 C 817.9270334727147 432.0811692495561 815.6884572218687 434.3197455004022 812.9270334727147 434.3197455004022 C 810.1656097235607 434.3197455004022 807.9270334727147 432.0811692495561 807.9270334727147 429.3197455004022 C 807.9270334727147 426.55832175124823 810.1656097235607 424.3197455004022 812.9270334727147 424.3197455004022 C 815.6884572218687 424.3197455004022 817.9270334727147 426.55832175124823 817.9270334727147 429.3197455004022 Z" fill-opacity="1"/><path fill="none" stroke="rgb(0,0,0)" paint-order="fill stroke markers" d=" M 817.9270334727147 429.3197455004022 C 817.9270334727147 432.0811692495561 815.6884572218687 434.3197455004022 812.9270334727147 434.3197455004022 C 810.1656097235607 434.3197455004022 807.9270334727147 432.0811692495561 807.9270334727147 429.3197455004022 C 807.9270334727147 426.55832175124823 810.1656097235607 424.3197455004022 812.9270334727147 424.3197455004022 C 815.6884572218687 424.3197455004022 817.9270334727147 426.55832175124823 817.9270334727147 429.3197455004022 Z" stroke-opacity="1" stroke-linecap="round" stroke-linejoin="round" stroke-miterlimit="10"/><path fill="rgb(77,77,255)" stroke="none" paint-order="stroke fill markers" d=" M 726.6966046500952 497.51218724660305 C 726.6966046500952 500.273610995757 724.4580283992492 502.51218724660305 721.6966046500952 502.51218724660305 C 718.9351809009412 502.51218724660305 716.6966046500952 500.273610995757 716.6966046500952 497.51218724660305 C 716.6966046500952 494.7507634974491 718.9351809009412 492.51218724660305 721.6966046500952 492.51218724660305 C 724.4580283992492 492.51218724660305 726.6966046500952 494.7507634974491 726.6966046500952 497.51218724660305 Z" fill-opacity="1"/><path fill="none" stroke="rgb(0,0,0)" paint-order="fill stroke markers" d=" M 726.6966046500952 497.51218724660305 C 726.6966046500952 500.273610995757 724.4580283992492 502.51218724660305 721.6966046500952 502.51218724660305 C 718.9351809009412 502.51218724660305 716.6966046500952 500.273610995757 716.6966046500952 497.51218724660305 C 716.6966046500952 494.7507634974491 718.9351809009412 492.51218724660305 721.6966046500952 492.51218724660305 C 724.4580283992492 492.51218724660305 726.6966046500952 494.7507634974491 726.6966046500952 497.51218724660305 Z" stroke-opacity="1" stroke-linecap="round" stroke-linejoin="round" stroke-miterlimit="10"/><path fill="rgb(77,77,255)" stroke="none" paint-order="stroke fill markers" d=" M 556.2155002845939 515.0210574246817 C 556.2155002845939 517.7824811738357 553.9769240337479 520.0210574246817 551.2155002845939 520.0210574246817 C 548.4540765354399 520.0210574246817 546.2155002845939 517.7824811738357 546.2155002845939 515.0210574246817 C 546.2155002845939 512.2596336755277 548.4540765354399 510.02105742468166 551.2155002845939 510.02105742468166 C 553.9769240337479 510.02105742468166 556.2155002845939 512.2596336755277 556.2155002845939 515.0210574246817 Z" fill-opacity="1"/><path fill="none" stroke="rgb(0,0,0)" paint-order="fill stroke markers" d=" M 556.2155002845939 515.0210574246817 C 556.2155002845939 517.7824811738357 553.9769240337479 520.0210574246817 551.2155002845939 520.0210574246817 C 548.4540765354399 520.0210574246817 546.2155002845939 517.7824811738357 546.2155002845939 515.0210574246817 C 546.2155002845939 512.2596336755277 548.4540765354399 510.02105742468166 551.2155002845939 510.02105742468166 C 553.9769240337479 510.02105742468166 556.2155002845939 512.2596336755277 556.2155002845939 515.0210574246817 Z" stroke-opacity="1" stroke-linecap="round" stroke-linejoin="round" stroke-miterlimit="10"/><path fill="rgb(77,77,255)" stroke="none" paint-order="stroke fill markers" d=" M 476.9648247417122 457.88684947516197 C 476.9648247417122 460.6482732243159 474.72624849086617 462.88684947516197 471.9648247417122 462.88684947516197 C 469.2034009925583 462.88684947516197 466.9648247417122 460.6482732243159 466.9648247417122 457.88684947516197 C 466.9648247417122 455.125425726008 469.2034009925583 452.88684947516197 471.9648247417122 452.88684947516197 C 474.72624849086617 452.88684947516197 476.9648247417122 455.125425726008 476.9648247417122 457.88684947516197 Z" fill-opacity="1"/><path fill="none" stroke="rgb(0,0,0)" paint-order="fill stroke markers" d=" M 476.9648247417122 457.88684947516197 C 476.9648247417122 460.6482732243159 474.72624849086617 462.88684947516197 471.9648247417122 462.88684947516197 C 469.2034009925583 462.88684947516197 466.9648247417122 460.6482732243159 466.9648247417122 457.88684947516197 C 466.9648247417122 455.125425726008 469.2034009925583 452.88684947516197 471.9648247417122 452.88684947516197 C 474.72624849086617 452.88684947516197 476.9648247417122 455.125425726008 476.9648247417122 457.88684947516197 Z" stroke-opacity="1" stroke-linecap="round" stroke-linejoin="round" stroke-miterlimit="10"/><path fill="rgb(0,0,255)" stroke="none" paint-order="stroke fill markers" d=" M 631.1443266502739 319.93671967732917 C 631.1443266502739 322.6981434264831 628.9057503994279 324.93671967732917 626.1443266502739 324.93671967732917 C 623.3829029011199 324.93671967732917 621.1443266502739 322.6981434264831 621.1443266502739 319.93671967732917 C 621.1443266502739 317.1752959281752 623.3829029011199 314.93671967732917 626.1443266502739 314.93671967732917 C 628.9057503994279 314.93671967732917 631.1443266502739 317.1752959281752 631.1443266502739 319.93671967732917 Z" fill-opacity="1"/><path fill="none" stroke="rgb(0,0,0)" paint-order="fill stroke markers" d=" M 631.1443266502739 319.93671967732917 C 631.1443266502739 322.6981434264831 628.9057503994279 324.93671967732917 626.1443266502739 324.93671967732917 C 623.3829029011199 324.93671967732917 621.1443266502739 322.6981434264831 621.1443266502739 319.93671967732917 C 621.1443266502739 317.1752959281752 623.3829029011199 314.93671967732917 626.1443266502739 314.93671967732917 C 628.9057503994279 314.93671967732917 631.1443266502739 317.1752959281752 631.1443266502739 319.93671967732917 Z" stroke-opacity="1" stroke-linecap="round" stroke-linejoin="round" stroke-miterlimit="10"/><path fill="rgb(0,0,255)" stroke="none" paint-order="stroke fill markers" d=" M 572.076384713086 396.981861334531 C 572.076384713086 399.74328508368495 569.83780846224 401.981861334531 567.076384713086 401.981861334531 C 564.314960963932 401.981861334531 562.076384713086 399.74328508368495 562.076384713086 396.981861334531 C 562.076384713086 394.22043758537706 564.314960963932 391.981861334531 567.076384713086 391.981861334531 C 569.83780846224 391.981861334531 572.076384713086 394.22043758537706 572.076384713086 396.981861334531 Z" fill-opacity="1"/><path fill="none" stroke="rgb(0,0,0)" paint-order="fill stroke markers" d=" M 572.076384713086 396.981861334531 C 572.076384713086 399.74328508368495 569.83780846224 401.981861334531 567.076384713086 401.981861334531 C 564.314960963932 401.981861334531 562.076384713086 399.74328508368495 562.076384713086 396.981861334531 C 562.076384713086 394.22043758537706 564.314960963932 391.981861334531 567.076384713086 391.981861334531 C 569.83780846224 391.981861334531 572.076384713086 394.22043758537706 572.076384713086 396.981861334531 Z" stroke-opacity="1" stroke-linecap="round" stroke-linejoin="round" stroke-miterlimit="10"/><path fill="rgb(0,0,255)" stroke="none" paint-order="stroke fill markers" d=" M 785.234609964677 335.3457480087697 C 785.234609964677 338.10717175792365 782.996033713831 340.3457480087697 780.234609964677 340.3457480087697 C 777.473186215523 340.3457480087697 775.234609964677 338.10717175792365 775.234609964677 335.3457480087697 C 775.234609964677 332.58432425961576 777.473186215523 330.3457480087697 780.234609964677 330.3457480087697 C 782.996033713831 330.3457480087697 785.234609964677 332.58432425961576 785.234609964677 335.3457480087697 Z" fill-opacity="1"/><path fill="none" stroke="rgb(0,0,0)" paint-order="fill stroke markers" d=" M 785.234609964677 335.3457480087697 C 785.234609964677 338.10717175792365 782.996033713831 340.3457480087697 780.234609964677 340.3457480087697 C 777.473186215523 340.3457480087697 775.234609964677 338.10717175792365 775.234609964677 335.3457480087697 C 775.234609964677 332.58432425961576 777.473186215523 330.3457480087697 780.234609964677 330.3457480087697 C 782.996033713831 330.3457480087697 785.234609964677 332.58432425961576 785.234609964677 335.3457480087697 Z" stroke-opacity="1" stroke-linecap="round" stroke-linejoin="round" stroke-miterlimit="10"/></g></g></svg>

<?xml version="1.0" encoding="UTF-8" standalone="no"?>
<svg
   xmlns:dc="http://purl.org/dc/elements/1.1/"
   xmlns:cc="http://creativecommons.org/ns#"
   xmlns:rdf="http://www.w3.org/1999/02/22-rdf-syntax-ns#"
   xmlns:svg="http://www.w3.org/2000/svg"
   xmlns="http://www.w3.org/2000/svg"
   xmlns:sodipodi="http://sodipodi.sourceforge.net/DTD/sodipodi-0.dtd"
   xmlns:inkscape="http://www.inkscape.org/namespaces/inkscape"
   version="1.1"
   width="766"
   height="562"
   id="svg1385"
   sodipodi:docname="andrew_init_fixed.svg"
   inkscape:version="0.92.2 (unknown)">
  <metadata
     id="metadata1389">
    <rdf:RDF>
      <cc:Work
         rdf:about="">
        <dc:format>image/svg+xml</dc:format>
        <dc:type
           rdf:resource="http://purl.org/dc/dcmitype/StillImage" />
        <dc:title></dc:title>
      </cc:Work>
    </rdf:RDF>
  </metadata>
  <sodipodi:namedview
     pagecolor="#ffffff"
     bordercolor="#666666"
     borderopacity="1"
     objecttolerance="10"
     gridtolerance="10"
     guidetolerance="10"
     inkscape:pageopacity="0"
     inkscape:pageshadow="2"
     inkscape:window-width="1366"
     inkscape:window-height="706"
     id="namedview1387"
     showgrid="false"
     fit-margin-top="0"
     fit-margin-left="0"
     fit-margin-right="0"
     fit-margin-bottom="0"
     inkscape:zoom="0.33022774"
     inkscape:cx="307.22571"
     inkscape:cy="281"
     inkscape:window-x="0"
     inkscape:window-y="34"
     inkscape:window-maximized="1"
     inkscape:current-layer="svg1385" />
  <defs
     id="defs1333">
    <clipPath
       id="fnzcxhcNgVuT">
      <path
         d="M 0,0 H 966 V 562 H 0 Z"
         id="path1330"
         inkscape:connector-curvature="0"
         style="fill:none;stroke:none" />
    </clipPath>
    <clipPath
       clipPathUnits="userSpaceOnUse"
       id="clipPath1399">
      <rect
         id="rect1401"
         width="766"
         height="562"
         x="200"
         y="0" />
    </clipPath>
  </defs>
  <g
     clip-path="url(#clipPath1399)"
     id="g1383"
     transform="translate(-200)">
    <g
       id="g1381">
      <rect
         x="0"
         y="0"
         width="966"
         height="562"
         id="rect1335"
         style="fill:#ffffff;fill-opacity:1;stroke:none" />
      <path
         d="m 445.63316,323.345 c 0,2.76143 -2.23857,5 -5,5 -2.76142,0 -5,-2.23857 -5,-5 0,-2.76142 2.23858,-5 5,-5 2.76143,0 5,2.23858 5,5 z"
         id="path1337"
         inkscape:connector-curvature="0"
         style="fill:#4d4dff;fill-opacity:1;stroke:none;paint-order:stroke fill markers" />
      <path
         d="m 445.63316,323.345 c 0,2.76143 -2.23857,5 -5,5 -2.76142,0 -5,-2.23857 -5,-5 0,-2.76142 2.23858,-5 5,-5 2.76143,0 5,2.23858 5,5 z"
         stroke-miterlimit="10"
         id="path1339"
         inkscape:connector-curvature="0"
         style="fill:none;stroke:#000000;stroke-linecap:round;stroke-linejoin:round;stroke-miterlimit:10;stroke-opacity:1;paint-order:fill stroke markers" />
      <path
         d="m 528.56992,251.46649 c 0,2.76142 -2.23858,5 -5,5 -2.76143,0 -5,-2.23858 -5,-5 0,-2.76143 2.23857,-5 5,-5 2.76142,0 5,2.23857 5,5 z"
         id="path1341"
         inkscape:connector-curvature="0"
         style="fill:#4d4dff;fill-opacity:1;stroke:none;paint-order:stroke fill markers" />
      <path
         d="m 528.56992,251.46649 c 0,2.76142 -2.23858,5 -5,5 -2.76143,0 -5,-2.23858 -5,-5 0,-2.76143 2.23857,-5 5,-5 2.76142,0 5,2.23857 5,5 z"
         stroke-miterlimit="10"
         id="path1343"
         inkscape:connector-curvature="0"
         style="fill:none;stroke:#000000;stroke-linecap:round;stroke-linejoin:round;stroke-miterlimit:10;stroke-opacity:1;paint-order:fill stroke markers" />
      <path
         d="m 697.20798,214.60571 c 0,2.76142 -2.23858,5 -5,5 -2.76142,0 -5,-2.23858 -5,-5 0,-2.76143 2.23858,-5 5,-5 2.76142,0 5,2.23857 5,5 z"
         id="path1345"
         inkscape:connector-curvature="0"
         style="fill:#4d4dff;fill-opacity:1;stroke:none;paint-order:stroke fill markers" />
      <path
         d="m 697.20798,214.60571 c 0,2.76142 -2.23858,5 -5,5 -2.76142,0 -5,-2.23858 -5,-5 0,-2.76143 2.23858,-5 5,-5 2.76142,0 5,2.23857 5,5 z"
         stroke-miterlimit="10"
         id="path1347"
         inkscape:connector-curvature="0"
         style="fill:none;stroke:#000000;stroke-linecap:round;stroke-linejoin:round;stroke-miterlimit:10;stroke-opacity:1;paint-order:fill stroke markers" />
      <path
         d="m 882.4334,299.3855 c 0,2.76142 -2.23858,5 -5,5 -2.76143,0 -5,-2.23858 -5,-5 0,-2.76143 2.23857,-5 5,-5 2.76142,0 5,2.23857 5,5 z"
         id="path1349"
         inkscape:connector-curvature="0"
         style="fill:#4d4dff;fill-opacity:1;stroke:none;paint-order:stroke fill markers" />
      <path
         d="m 882.4334,299.3855 c 0,2.76142 -2.23858,5 -5,5 -2.76143,0 -5,-2.23858 -5,-5 0,-2.76143 2.23857,-5 5,-5 2.76142,0 5,2.23857 5,5 z"
         stroke-miterlimit="10"
         id="path1351"
         inkscape:connector-curvature="0"
         style="fill:none;stroke:#000000;stroke-linecap:round;stroke-linejoin:round;stroke-miterlimit:10;stroke-opacity:1;paint-order:fill stroke markers" />
      <path
         d="m 817.92703,429.31975 c 0,2.76142 -2.23857,5 -5,5 -2.76142,0 -5,-2.23858 -5,-5 0,-2.76143 2.23858,-5 5,-5 2.76143,0 5,2.23857 5,5 z"
         id="path1353"
         inkscape:connector-curvature="0"
         style="fill:#4d4dff;fill-opacity:1;stroke:none;paint-order:stroke fill markers" />
      <path
         d="m 817.92703,429.31975 c 0,2.76142 -2.23857,5 -5,5 -2.76142,0 -5,-2.23858 -5,-5 0,-2.76143 2.23858,-5 5,-5 2.76143,0 5,2.23857 5,5 z"
         stroke-miterlimit="10"
         id="path1355"
         inkscape:connector-curvature="0"
         style="fill:none;stroke:#000000;stroke-linecap:round;stroke-linejoin:round;stroke-miterlimit:10;stroke-opacity:1;paint-order:fill stroke markers" />
      <path
         d="m 726.6966,497.51219 c 0,2.76142 -2.23857,5 -5,5 -2.76142,0 -5,-2.23858 -5,-5 0,-2.76143 2.23858,-5 5,-5 2.76143,0 5,2.23857 5,5 z"
         id="path1357"
         inkscape:connector-curvature="0"
         style="fill:#4d4dff;fill-opacity:1;stroke:none;paint-order:stroke fill markers" />
      <path
         d="m 726.6966,497.51219 c 0,2.76142 -2.23857,5 -5,5 -2.76142,0 -5,-2.23858 -5,-5 0,-2.76143 2.23858,-5 5,-5 2.76143,0 5,2.23857 5,5 z"
         stroke-miterlimit="10"
         id="path1359"
         inkscape:connector-curvature="0"
         style="fill:none;stroke:#000000;stroke-linecap:round;stroke-linejoin:round;stroke-miterlimit:10;stroke-opacity:1;paint-order:fill stroke markers" />
      <path
         d="m 556.2155,515.02106 c 0,2.76142 -2.23858,5 -5,5 -2.76142,0 -5,-2.23858 -5,-5 0,-2.76143 2.23858,-5 5,-5 2.76142,0 5,2.23857 5,5 z"
         id="path1361"
         inkscape:connector-curvature="0"
         style="fill:#4d4dff;fill-opacity:1;stroke:none;paint-order:stroke fill markers" />
      <path
         d="m 556.2155,515.02106 c 0,2.76142 -2.23858,5 -5,5 -2.76142,0 -5,-2.23858 -5,-5 0,-2.76143 2.23858,-5 5,-5 2.76142,0 5,2.23857 5,5 z"
         stroke-miterlimit="10"
         id="path1363"
         inkscape:connector-curvature="0"
         style="fill:none;stroke:#000000;stroke-linecap:round;stroke-linejoin:round;stroke-miterlimit:10;stroke-opacity:1;paint-order:fill stroke markers" />
      <path
         d="m 476.96482,457.88685 c 0,2.76142 -2.23857,5 -5,5 -2.76142,0 -5,-2.23858 -5,-5 0,-2.76142 2.23858,-5 5,-5 2.76143,0 5,2.23858 5,5 z"
         id="path1365"
         inkscape:connector-curvature="0"
         style="fill:#4d4dff;fill-opacity:1;stroke:none;paint-order:stroke fill markers" />
      <path
         d="m 476.96482,457.88685 c 0,2.76142 -2.23857,5 -5,5 -2.76142,0 -5,-2.23858 -5,-5 0,-2.76142 2.23858,-5 5,-5 2.76143,0 5,2.23858 5,5 z"
         stroke-miterlimit="10"
         id="path1367"
         inkscape:connector-curvature="0"
         style="fill:none;stroke:#000000;stroke-linecap:round;stroke-linejoin:round;stroke-miterlimit:10;stroke-opacity:1;paint-order:fill stroke markers" />
      <path
         d="m 631.14433,319.93672 c 0,2.76142 -2.23858,5 -5,5 -2.76143,0 -5,-2.23858 -5,-5 0,-2.76142 2.23857,-5 5,-5 2.76142,0 5,2.23858 5,5 z"
         id="path1369"
         inkscape:connector-curvature="0"
         style="fill:#0000ff;fill-opacity:1;stroke:none;paint-order:stroke fill markers" />
      <path
         d="m 631.14433,319.93672 c 0,2.76142 -2.23858,5 -5,5 -2.76143,0 -5,-2.23858 -5,-5 0,-2.76142 2.23857,-5 5,-5 2.76142,0 5,2.23858 5,5 z"
         stroke-miterlimit="10"
         id="path1371"
         inkscape:connector-curvature="0"
         style="fill:none;stroke:#000000;stroke-linecap:round;stroke-linejoin:round;stroke-miterlimit:10;stroke-opacity:1;paint-order:fill stroke markers" />
      <path
         d="m 572.07638,396.98186 c 0,2.76143 -2.23857,5 -5,5 -2.76142,0 -5,-2.23857 -5,-5 0,-2.76142 2.23858,-5 5,-5 2.76143,0 5,2.23858 5,5 z"
         id="path1373"
         inkscape:connector-curvature="0"
         style="fill:#0000ff;fill-opacity:1;stroke:none;paint-order:stroke fill markers" />
      <path
         d="m 572.07638,396.98186 c 0,2.76143 -2.23857,5 -5,5 -2.76142,0 -5,-2.23857 -5,-5 0,-2.76142 2.23858,-5 5,-5 2.76143,0 5,2.23858 5,5 z"
         stroke-miterlimit="10"
         id="path1375"
         inkscape:connector-curvature="0"
         style="fill:none;stroke:#000000;stroke-linecap:round;stroke-linejoin:round;stroke-miterlimit:10;stroke-opacity:1;paint-order:fill stroke markers" />
      <path
         d="m 785.23461,335.34575 c 0,2.76142 -2.23858,5 -5,5 -2.76142,0 -5,-2.23858 -5,-5 0,-2.76143 2.23858,-5 5,-5 2.76142,0 5,2.23857 5,5 z"
         id="path1377"
         inkscape:connector-curvature="0"
         style="fill:#0000ff;fill-opacity:1;stroke:none;paint-order:stroke fill markers" />
      <path
         d="m 785.23461,335.34575 c 0,2.76142 -2.23858,5 -5,5 -2.76142,0 -5,-2.23858 -5,-5 0,-2.76143 2.23858,-5 5,-5 2.76142,0 5,2.23857 5,5 z"
         stroke-miterlimit="10"
         id="path1379"
         inkscape:connector-curvature="0"
         style="fill:none;stroke:#000000;stroke-linecap:round;stroke-linejoin:round;stroke-miterlimit:10;stroke-opacity:1;paint-order:fill stroke markers" />
    </g>
  </g>
</svg>
